packages/ui-icons/svg/Solid/move-left.svg

<svg viewBox="0 0 1920 1920" version="1.1" xmlns="http://www.w3.org/2000/svg">
    <path d="M235.096763,255 L235.096763,1665.58058 L0,1665.58058 L0,255 L235.096763,255 Z M1013.93707,289.406411 L1180.26803,455.619823 L793.181214,842.706643 L1920,842.706643 L1920,1077.80341 L793.181214,1077.80341 L1180.26803,1464.89023 L1013.93707,1631.10364 L343.088461,960.255025 L1013.93707,289.406411 Z" stroke="none" stroke-width="1" fill-rule="evenodd"/>
</svg>

<svg viewBox="0 0 1920 1920" version="1.1" xmlns="http://www.w3.org/2000/svg">
    <path d="M343.088 960.255l670.85-670.849 166.33 166.214-387.087 387.087H1920v235.096H793.181l387.087 387.087-166.33 166.214-670.85-670.849zM0 1665.581V255h235.097v1410.58H0z" stroke="none" stroke-width="1" fill-rule="evenodd"/>
</svg>
